TV/Source/Motorsport.tv - Dark.svg

<svg height="113.33266" viewBox="0 0 946.17896 113.33266" width="946.17896" xmlns="http://www.w3.org/2000/svg" xmlns:xlink="http://www.w3.org/1999/xlink"><clipPath id="a"><path d="m0 612h792v-612h-792z"/></clipPath><g clip-path="url(#a)" transform="matrix(1.3333333 0 0 -1.3333333 -54.588632 464.66632)"><g transform="translate(168.7361 265.2455)"><path d="m0 0c-40.519-2.327-80.882-2.327-121.405 0-2.792.201-5.25 2.649-5.43 5.422-1.279 23.618-1.28 47.042 0 70.665.18 2.773 2.638 5.221 5.43 5.422 40.523 2.327 80.886 2.327 121.405 0 2.792-.201 5.25-2.649 5.431-5.422 1.279-23.623 1.279-47.047 0-70.665-.181-2.773-2.639-5.221-5.431-5.422" fill="#fd0"/></g><g transform="translate(116.832 272.1201)"><path d="m0 0c-.541-.139-1.076.072-1.374.515 0 0-3.165 4.608-3.419 4.967-.253.359-.702.577-1.149.536-1.882-.195-3.796-.198-5.712-.001-.448.041-.896-.176-1.149-.535-.254-.359-3.419-4.967-3.419-4.967-.298-.443-.833-.654-1.374-.515-1.492.383-3.047.902-4.596 1.544s-3.015 1.374-4.342 2.158c-.48.284-.71.811-.607 1.336 0 0 1.02 5.497 1.095 5.93.074.433-.089.903-.434 1.191-1.469 1.193-2.824 2.544-4.04 4.039-.287.344-.757.508-1.19.434-.433-.075-5.93-1.095-5.93-1.095-.524-.103-1.052.127-1.336.607-.784 1.326-1.516 2.793-2.158 4.342s-1.161 3.104-1.544 4.596c-.139.541.072 1.076.515 1.374 0 0 4.608 3.165 4.967 3.419.359.253.576.701.535 1.149-.197 1.916-.194 3.83.001 5.712.041.447-.177.895-.536 1.149s-4.967 3.419-4.967 3.419c-.443.298-.654.833-.515 1.374.383 1.492.902 3.046 1.544 4.596.642 1.549 1.374 3.015 2.158 4.341.284.481.812.71 1.336.608 0 0 5.497-1.021 5.93-1.095s.903.089 1.19.434c1.216 1.495 2.572 2.845 4.04 4.039.345.287.508.758.434 1.191-.075.433-1.095 5.929-1.095 5.929-.103.525.127 1.052.607 1.337 1.326.784 2.793 1.516 4.342 2.158 1.549.641 3.104 1.16 4.596 1.544.541.139 1.076-.072 1.374-.516 0 0 3.165-4.608 3.419-4.966.253-.359.701-.577 1.149-.536 1.882.194 3.796.198 5.712.001.447-.041.896.176 1.149.534.254.359 3.419 4.967 3.419 4.967.298.444.833.655 1.374.516 1.492-.384 3.046-.903 4.596-1.544 1.549-.642 3.015-1.374 4.341-2.158.481-.285.711-.812.608-1.337 0 0-1.021-5.496-1.095-5.929s.089-.904.434-1.191c1.468-1.194 2.824-2.544 4.04-4.039.287-.345.757-.509 1.19-.434.433.074 5.929 1.095 5.929 1.095.525.103 1.052-.127 1.337-.608.784-1.326 1.516-2.792 2.158-4.341.641-1.55 1.16-3.104 1.544-4.596.139-.541-.072-1.076-.516-1.374 0 0-4.608-3.165-4.966-3.419-.359-.254-.576-.702-.535-1.149.197-1.916.193-3.83-.001-5.712-.041-.448.177-.896.536-1.149.358-.254 4.966-3.419 4.966-3.419.444-.298.655-.833.516-1.374-.384-1.492-.903-3.047-1.544-4.596-.642-1.55-1.374-3.016-2.158-4.342-.284-.48-.812-.71-1.336-.607 0 0-5.497 1.02-5.93 1.095-.433.074-.903-.09-1.19-.434-1.216-1.495-2.572-2.846-4.04-4.039-.345-.288-.508-.758-.434-1.191s1.095-5.93 1.095-5.93c.102-.525-.127-1.052-.608-1.336-1.326-.784-2.792-1.516-4.341-2.158-1.55-.642-3.104-1.161-4.596-1.544"/></g><g transform="translate(108.0339 326.4792)"><path d="m0 0c-11.293 0-20.479-9.186-20.479-20.479s9.186-20.479 20.479-20.479 20.479 9.186 20.479 20.479-9.186 20.479-20.479 20.479" fill="#fff"/></g><g transform="translate(122.4719 307)"><path d="m0 0c .953-.55.953-1.45 0-2l-21.22-12.251c-.953-.55-1.732-.1-1.732 1v24.502c0 1.1.779 1.55 1.732 1z"/></g><g transform="translate(337.4474 336.7851)"><path d="m0 0h-11.517v-50.782h11.517v28.463h8.338v11.54h-8.338z"/></g><g transform="translate(296.1198 297.0259)"><path d="m0 0c-4.95 0-8.972 4.032-8.972 8.976 0 4.95 4.022 8.982 8.972 8.982 4.953 0 8.979-4.032 8.979-8.982 0-4.944-4.026-8.976-8.979-8.976m0 29.456c-11.293 0-20.477-9.188-20.477-20.48 0-11.293 9.184-20.474 20.477-20.474 11.296 0 20.48 9.181 20.48 20.474 0 11.292-9.184 20.48-20.48 20.48"/></g><g transform="translate(373.503 297.0259)"><path d="m0 0c-4.953 0-8.976 4.032-8.976 8.976 0 4.95 4.023 8.982 8.976 8.982 4.95 0 8.972-4.032 8.972-8.982 0-4.944-4.022-8.976-8.972-8.976m0 29.456c-11.296 0-20.48-9.188-20.48-20.48 0-11.293 9.184-20.474 20.48-20.474 11.293 0 20.477 9.181 20.477 20.474 0 11.292-9.184 20.48-20.477 20.48"/></g><g transform="translate(249.2367 326.4815)"><path d="m0 0c-4.354 0-8.318-1.643-11.335-4.325-3.017 2.682-6.981 4.325-11.335 4.325-9.431 0-17.076-7.645-17.076-17.076v-23.405h11.488v23.405c0 3.085 2.503 5.588 5.588 5.588 3.088 0 5.591-2.503 5.591-5.588v-23.405h11.485l.006 23.405c0 3.085 2.5 5.588 5.588 5.588 3.085 0 5.588-2.503 5.588-5.588v-23.405h11.488v23.405c0 9.431-7.645 17.076-17.076 17.076"/></g><g transform="translate(408.2469 320.3731)"><path d="m0 0c-3.232-3.088-4.937-6.815-4.937-11.677v-22.696h11.517v18.114c.105 4.745 2.506 9.731 7.638 10.18 1.406.136 5.406.153 5.406.153v11.559h-3.668c-3.02 0-10.638-.55-15.956-5.633"/></g><g transform="translate(547.0569 297.0259)"><path d="m0 0c-4.95 0-8.979 4.032-8.979 8.976 0 4.95 4.029 8.982 8.979 8.982 4.953 0 8.976-4.032 8.976-8.982 0-4.944-4.023-8.976-8.976-8.976m0 29.456c-11.293 0-20.477-9.188-20.477-20.48 0-11.293 9.184-20.474 20.477-20.474 11.296 0 20.48 9.181 20.48 20.474 0 11.292-9.184 20.48-20.48 20.48"/></g><g transform="translate(622.2695 326.0065)"><path d="m0 0v10.834h-11.514v-50.84h11.514v28.466h8.341v11.54z"/></g><g transform="translate(581.8011 320.3731)"><path d="m0 0c-3.232-3.088-4.937-7.29-4.937-12.152v-22.221h11.514v18.114c.104 4.745 2.509 9.731 7.641 10.18 1.406.136 5.406.153 5.406.153v11.559h-3.668c-3.02 0-10.638-.55-15.956-5.633"/></g><g transform="translate(496.77 297.0649)"><path d="m0 0c-4.908 0-8.933 3.987-8.969 8.885l-.003.273c.104 4.856 4.129 8.797 8.972 8.797 4.95 0 8.979-4.026 8.979-8.976s-4.029-8.979-8.979-8.979m0 29.456c-11.293 0-20.477-9.188-20.477-20.48v-34.715h11.508v16.285l.752-.332c2.571-1.139 5.34-1.715 8.217-1.715 11.293 0 20.48 9.187 20.48 20.48 0 11.289-9.187 20.477-20.48 20.477"/></g><g transform="translate(459.1002 310.177)"><path d="m0 0-5.705 1.331c-.355.078-2.88.225-3.18 2.444-.367 3.326 5.188 4.071 9.328 2.07l1.991-.96 4.521 8.507-5.845 1.848c-9.249 2.955-20.5-.146-22.648-9.841-1.253-5.545.895-10.648 6.441-12.276l7.697-2.219c1.34-.371 2.362-1.406 2.069-2.965-.589-3.173-6.655-2.955-10.062-1.1l-4.576 2.438-5.113-9.324 6.063-2.737c9.767-4.436 24.115-.664 26.338 8.292 1.409 5.468.368 12.715-7.319 14.492"/></g><g transform="translate(649.0427 297.0868)"><path d="m0 0c-3.186 0-5.777-2.591-5.777-5.776 0-3.186 2.591-5.777 5.777-5.777 3.185 0 5.776 2.591 5.776 5.777 0 3.185-2.591 5.776-5.776 5.776"/></g><g transform="translate(695.668 326.0068)"><path d="m0 0h-8.338v10.834h-11.518v-50.841h11.518v28.466h8.338z"/></g><g transform="translate(733.0117 286)"><path d="m0 0 17.564 40.007h-11.908l-10.168-23.176-10.167 23.176h-11.909l17.565-40.007z"/></g></g></svg>

<?xml version="1.0" encoding="UTF-8" standalone="no"?>
<!-- Created with Inkscape (http://www.inkscape.org/) -->

<svg
   xmlns:dc="http://purl.org/dc/elements/1.1/"
   xmlns:cc="http://creativecommons.org/ns#"
   xmlns:rdf="http://www.w3.org/1999/02/22-rdf-syntax-ns#"
   xmlns:svg="http://www.w3.org/2000/svg"
   xmlns="http://www.w3.org/2000/svg"
   xmlns:sodipodi="http://sodipodi.sourceforge.net/DTD/sodipodi-0.dtd"
   xmlns:inkscape="http://www.inkscape.org/namespaces/inkscape"
   version="1.1"
   id="svg2"
   xml:space="preserve"
   width="946.17896"
   height="113.33266"
   viewBox="0 0 946.17896 113.33266"
   sodipodi:docname="Motorsport.tv - Dark.svg"
   inkscape:version="0.92.0 r15299"><metadata
     id="metadata8"><rdf:RDF><cc:Work
         rdf:about=""><dc:format>image/svg+xml</dc:format><dc:type
           rdf:resource="http://purl.org/dc/dcmitype/StillImage" /><dc:title></dc:title></cc:Work></rdf:RDF></metadata><defs
     id="defs6"><clipPath
       clipPathUnits="userSpaceOnUse"
       id="clipPath18"><path
         d="M 0,612 H 792 V 0 H 0 Z"
         id="path16"
         inkscape:connector-curvature="0" /></clipPath></defs><sodipodi:namedview
     pagecolor="#ffffff"
     bordercolor="#666666"
     borderopacity="1"
     objecttolerance="10"
     gridtolerance="10"
     guidetolerance="10"
     inkscape:pageopacity="0"
     inkscape:pageshadow="2"
     inkscape:window-width="1920"
     inkscape:window-height="1017"
     id="namedview4"
     showgrid="false"
     fit-margin-top="0"
     fit-margin-left="0"
     fit-margin-right="0"
     fit-margin-bottom="0"
     inkscape:zoom="0.40901275"
     inkscape:cx="-292.3131"
     inkscape:cy="-189.03084"
     inkscape:window-x="-8"
     inkscape:window-y="-8"
     inkscape:window-maximized="1"
     inkscape:current-layer="g10" /><g
     id="g10"
     inkscape:groupmode="layer"
     inkscape:label="motorsporttv_logo_whitebackbackround"
     transform="matrix(1.3333333,0,0,-1.3333333,-54.588632,464.66632)"><g
       id="g12"><g
         id="g14"
         clip-path="url(#clipPath18)"><g
           id="g20"
           transform="translate(168.7361,265.2455)"><path
             d="m 0,0 c -40.519,-2.327 -80.882,-2.327 -121.405,0 -2.792,0.201 -5.25,2.649 -5.43,5.422 -1.279,23.618 -1.28,47.042 0,70.665 0.18,2.773 2.638,5.221 5.43,5.422 40.523,2.327 80.886,2.327 121.405,0 C 2.792,81.308 5.25,78.86 5.431,76.087 6.71,52.464 6.71,29.04 5.431,5.422 5.25,2.649 2.792,0.201 0,0"
             style="fill:#ffdd00;fill-opacity:1;fill-rule:nonzero;stroke:none"
             id="path22"
             inkscape:connector-curvature="0" /></g><g
           id="g24"
           transform="translate(116.832,272.1201)"><path
             d="m 0,0 c -0.541,-0.139 -1.076,0.072 -1.374,0.515 0,0 -3.165,4.608 -3.419,4.967 C -5.046,5.841 -5.495,6.059 -5.942,6.018 -7.824,5.823 -9.738,5.82 -11.654,6.017 -12.102,6.058 -12.55,5.841 -12.803,5.482 -13.057,5.123 -16.222,0.515 -16.222,0.515 -16.52,0.072 -17.055,-0.139 -17.596,0 c -1.492,0.383 -3.047,0.902 -4.596,1.544 -1.549,0.642 -3.015,1.374 -4.342,2.158 -0.48,0.284 -0.71,0.811 -0.607,1.336 0,0 1.02,5.497 1.095,5.93 0.074,0.433 -0.089,0.903 -0.434,1.191 -1.469,1.193 -2.824,2.544 -4.04,4.039 -0.287,0.344 -0.757,0.508 -1.19,0.434 -0.433,-0.075 -5.93,-1.095 -5.93,-1.095 -0.524,-0.103 -1.052,0.127 -1.336,0.607 -0.784,1.326 -1.516,2.793 -2.158,4.342 -0.642,1.549 -1.161,3.104 -1.544,4.596 -0.139,0.541 0.072,1.076 0.515,1.374 0,0 4.608,3.165 4.967,3.419 0.359,0.253 0.576,0.701 0.535,1.149 -0.197,1.916 -0.194,3.83 0.001,5.712 0.041,0.447 -0.177,0.895 -0.536,1.149 -0.359,0.254 -4.967,3.419 -4.967,3.419 -0.443,0.298 -0.654,0.833 -0.515,1.374 0.383,1.492 0.902,3.046 1.544,4.596 0.642,1.549 1.374,3.015 2.158,4.341 0.284,0.481 0.812,0.71 1.336,0.608 0,0 5.497,-1.021 5.93,-1.095 0.433,-0.074 0.903,0.089 1.19,0.434 1.216,1.495 2.572,2.845 4.04,4.039 0.345,0.287 0.508,0.758 0.434,1.191 -0.075,0.433 -1.095,5.929 -1.095,5.929 -0.103,0.525 0.127,1.052 0.607,1.337 1.326,0.784 2.793,1.516 4.342,2.158 1.549,0.641 3.104,1.16 4.596,1.544 0.541,0.139 1.076,-0.072 1.374,-0.516 0,0 3.165,-4.608 3.419,-4.966 0.253,-0.359 0.701,-0.577 1.149,-0.536 1.882,0.194 3.796,0.198 5.712,0.001 0.447,-0.041 0.896,0.176 1.149,0.534 0.254,0.359 3.419,4.967 3.419,4.967 0.298,0.444 0.833,0.655 1.374,0.516 1.492,-0.384 3.046,-0.903 4.596,-1.544 1.549,-0.642 3.015,-1.374 4.341,-2.158 0.481,-0.285 0.711,-0.812 0.608,-1.337 0,0 -1.021,-5.496 -1.095,-5.929 -0.074,-0.433 0.089,-0.904 0.434,-1.191 1.468,-1.194 2.824,-2.544 4.04,-4.039 0.287,-0.345 0.757,-0.509 1.19,-0.434 0.433,0.074 5.929,1.095 5.929,1.095 0.525,0.103 1.052,-0.127 1.337,-0.608 0.784,-1.326 1.516,-2.792 2.158,-4.341 0.641,-1.55 1.16,-3.104 1.544,-4.596 0.139,-0.541 -0.072,-1.076 -0.516,-1.374 0,0 -4.608,-3.165 -4.966,-3.419 -0.359,-0.254 -0.576,-0.702 -0.535,-1.149 0.197,-1.916 0.193,-3.83 -0.001,-5.712 -0.041,-0.448 0.177,-0.896 0.536,-1.149 0.358,-0.254 4.966,-3.419 4.966,-3.419 0.444,-0.298 0.655,-0.833 0.516,-1.374 -0.384,-1.492 -0.903,-3.047 -1.544,-4.596 -0.642,-1.55 -1.374,-3.016 -2.158,-4.342 -0.284,-0.48 -0.812,-0.71 -1.336,-0.607 0,0 -5.497,1.02 -5.93,1.095 -0.433,0.074 -0.903,-0.09 -1.19,-0.434 C 11.708,14.703 10.352,13.352 8.884,12.159 8.539,11.871 8.376,11.401 8.45,10.968 8.524,10.535 9.545,5.038 9.545,5.038 9.647,4.513 9.418,3.986 8.937,3.702 7.611,2.918 6.145,2.186 4.596,1.544 3.046,0.902 1.492,0.383 0,0"
             style="fill:#000000;fill-opacity:1;fill-rule:nonzero;stroke:none"
             id="path26"
             inkscape:connector-curvature="0" /></g><g
           id="g28"
           transform="translate(108.0339,326.4792)"><path
             d="m 0,0 c -11.293,0 -20.479,-9.186 -20.479,-20.479 0,-11.293 9.186,-20.479 20.479,-20.479 11.293,0 20.479,9.186 20.479,20.479 C 20.479,-9.186 11.293,0 0,0"
             style="fill:#ffffff;fill-opacity:1;fill-rule:nonzero;stroke:none"
             id="path30"
             inkscape:connector-curvature="0" /></g><g
           id="g32"
           transform="translate(122.4719,307)"><path
             d="m 0,0 c 0.953,-0.55 0.953,-1.45 0,-2 l -21.22,-12.251 c -0.953,-0.55 -1.732,-0.1 -1.732,1 v 24.502 c 0,1.1 0.779,1.55 1.732,1 z"
             style="fill:#000000;fill-opacity:1;fill-rule:nonzero;stroke:none"
             id="path34"
             inkscape:connector-curvature="0" /></g><g
           id="g36"
           transform="translate(337.4474,336.7851)"><path
             d="M 0,0 H -11.517 V -50.782 H 0 v 28.463 h 8.338 v 11.54 H 0 Z"
             style="fill:#000000;fill-opacity:1;fill-rule:nonzero;stroke:none"
             id="path38"
             inkscape:connector-curvature="0" /></g><g
           id="g40"
           transform="translate(296.1198,297.0259)"><path
             d="m 0,0 c -4.95,0 -8.972,4.032 -8.972,8.976 0,4.95 4.022,8.982 8.972,8.982 4.953,0 8.979,-4.032 8.979,-8.982 C 8.979,4.032 4.953,0 0,0 m 0,29.456 c -11.293,0 -20.477,-9.188 -20.477,-20.48 0,-11.293 9.184,-20.474 20.477,-20.474 11.296,0 20.48,9.181 20.48,20.474 0,11.292 -9.184,20.48 -20.48,20.48"
             style="fill:#000000;fill-opacity:1;fill-rule:nonzero;stroke:none"
             id="path42"
             inkscape:connector-curvature="0" /></g><g
           id="g44"
           transform="translate(373.503,297.0259)"><path
             d="m 0,0 c -4.953,0 -8.976,4.032 -8.976,8.976 0,4.95 4.023,8.982 8.976,8.982 4.95,0 8.972,-4.032 8.972,-8.982 C 8.972,4.032 4.95,0 0,0 m 0,29.456 c -11.296,0 -20.48,-9.188 -20.48,-20.48 0,-11.293 9.184,-20.474 20.48,-20.474 11.293,0 20.477,9.181 20.477,20.474 0,11.292 -9.184,20.48 -20.477,20.48"
             style="fill:#000000;fill-opacity:1;fill-rule:nonzero;stroke:none"
             id="path46"
             inkscape:connector-curvature="0" /></g><g
           id="g48"
           transform="translate(249.2367,326.4815)"><path
             d="M 0,0 C -4.354,0 -8.318,-1.643 -11.335,-4.325 -14.352,-1.643 -18.316,0 -22.67,0 -32.101,0 -39.746,-7.645 -39.746,-17.076 v -23.405 h 11.488 v 23.405 c 0,3.085 2.503,5.588 5.588,5.588 3.088,0 5.591,-2.503 5.591,-5.588 v -23.405 h 11.485 l 0.006,23.405 c 0,3.085 2.5,5.588 5.588,5.588 3.085,0 5.588,-2.503 5.588,-5.588 v -23.405 h 11.488 v 23.405 C 17.076,-7.645 9.431,0 0,0"
             style="fill:#000000;fill-opacity:1;fill-rule:nonzero;stroke:none"
             id="path50"
             inkscape:connector-curvature="0" /></g><g
           id="g52"
           transform="translate(408.2469,320.3731)"><path
             d="M 0,0 C -3.232,-3.088 -4.937,-6.815 -4.937,-11.677 V -34.373 H 6.58 v 18.114 c 0.105,4.745 2.506,9.731 7.638,10.18 1.406,0.136 5.406,0.153 5.406,0.153 V 5.633 H 15.956 C 12.936,5.633 5.318,5.083 0,0"
             style="fill:#000000;fill-opacity:1;fill-rule:nonzero;stroke:none"
             id="path54"
             inkscape:connector-curvature="0" /></g><g
           id="g56"
           transform="translate(547.0569,297.0259)"><path
             d="m 0,0 c -4.95,0 -8.979,4.032 -8.979,8.976 0,4.95 4.029,8.982 8.979,8.982 4.953,0 8.976,-4.032 8.976,-8.982 C 8.976,4.032 4.953,0 0,0 m 0,29.456 c -11.293,0 -20.477,-9.188 -20.477,-20.48 0,-11.293 9.184,-20.474 20.477,-20.474 11.296,0 20.48,9.181 20.48,20.474 0,11.292 -9.184,20.48 -20.48,20.48"
             style="fill:#000000;fill-opacity:1;fill-rule:nonzero;stroke:none"
             id="path58"
             inkscape:connector-curvature="0" /></g><g
           id="g60"
           transform="translate(622.2695,326.0065)"><path
             d="m 0,0 v 10.834 h -11.514 v -50.84 H 0 V -11.54 H 8.341 V 0 Z"
             style="fill:#000000;fill-opacity:1;fill-rule:nonzero;stroke:none"
             id="path62"
             inkscape:connector-curvature="0" /></g><g
           id="g64"
           transform="translate(581.8011,320.3731)"><path
             d="M 0,0 C -3.232,-3.088 -4.937,-7.29 -4.937,-12.152 V -34.373 H 6.577 v 18.114 c 0.104,4.745 2.509,9.731 7.641,10.18 1.406,0.136 5.406,0.153 5.406,0.153 V 5.633 H 15.956 C 12.936,5.633 5.318,5.083 0,0"
             style="fill:#000000;fill-opacity:1;fill-rule:nonzero;stroke:none"
             id="path66"
             inkscape:connector-curvature="0" /></g><g
           id="g68"
           transform="translate(496.77,297.0649)"><path
             d="m 0,0 c -4.908,0 -8.933,3.987 -8.969,8.885 l -0.003,0.273 c 0.104,4.856 4.129,8.797 8.972,8.797 4.95,0 8.979,-4.026 8.979,-8.976 C 8.979,4.029 4.95,0 0,0 m 0,29.456 c -11.293,0 -20.477,-9.188 -20.477,-20.48 v -34.715 h 11.508 v 16.285 l 0.752,-0.332 c 2.571,-1.139 5.34,-1.715 8.217,-1.715 11.293,0 20.48,9.187 20.48,20.48 0,11.289 -9.187,20.477 -20.48,20.477"
             style="fill:#000000;fill-opacity:1;fill-rule:nonzero;stroke:none"
             id="path70"
             inkscape:connector-curvature="0" /></g><g
           id="g72"
           transform="translate(459.1002,310.177)"><path
             d="m 0,0 -5.705,1.331 c -0.355,0.078 -2.88,0.225 -3.18,2.444 -0.367,3.326 5.188,4.071 9.328,2.07 L 2.434,4.885 6.955,13.392 1.11,15.24 c -9.249,2.955 -20.5,-0.146 -22.648,-9.841 -1.253,-5.545 0.895,-10.648 6.441,-12.276 L -7.4,-9.096 c 1.34,-0.371 2.362,-1.406 2.069,-2.965 -0.589,-3.173 -6.655,-2.955 -10.062,-1.1 l -4.576,2.438 -5.113,-9.324 6.063,-2.737 C -9.252,-27.22 5.096,-23.448 7.319,-14.492 8.728,-9.024 7.687,-1.777 0,0"
             style="fill:#000000;fill-opacity:1;fill-rule:nonzero;stroke:none"
             id="path74"
             inkscape:connector-curvature="0" /></g><g
           id="g76"
           transform="translate(649.0427,297.0868)"><path
             d="m 0,0 c -3.186,0 -5.777,-2.591 -5.777,-5.776 0,-3.186 2.591,-5.777 5.777,-5.777 3.185,0 5.776,2.591 5.776,5.777 C 5.776,-2.591 3.185,0 0,0"
             style="fill:#000000;fill-opacity:1;fill-rule:nonzero;stroke:none"
             id="path78"
             inkscape:connector-curvature="0" /></g><g
           id="g80"
           transform="translate(695.668,326.0068)"><path
             d="m 0,0 h -8.338 v 10.834 h -11.518 v -50.841 h 11.518 v 28.466 H 0 Z"
             style="fill:#000000;fill-opacity:1;fill-rule:nonzero;stroke:none"
             id="path82"
             inkscape:connector-curvature="0" /></g><g
           id="g84"
           transform="translate(733.0117,286)"><path
             d="M 0,0 17.564,40.007 H 5.656 L -4.512,16.831 -14.679,40.007 H -26.588 L -9.023,0 Z"
             style="fill:#000000;fill-opacity:1;fill-rule:nonzero;stroke:none"
             id="path86"
             inkscape:connector-curvature="0" /></g></g></g></g></svg>
